X: 3
T: The Phoenix
R: reel
M: 4/4
L: 1/8
K: Dmaj
de|~f2df fece|BAGB AGFA|fedf edce|BAB/c/d A2de|
fAdf eAce|BAGB AGFA|D/D/D dc defd|edce (3ddd de|
(3fgf df fece|BAGB AGFA|fadf eAce|BAB/c/d A2de|
effd e3d|~B3d AGFA|Dddc defd|edce d2dB|
FBBD DBBd|ffdf edcB|FBBA Bcde|(3fgf fe decd|
A-BFB ~B2FB|de (3fed ecdB|FBBA Bcde|fdec AB~B2|
FBBD (3BcB Bd|ffdf edcB|FBBA Bcde|faef decd|
A-BFB ~B2FB|de (3fed ecdB|FBBA Bcde|fdec d2|


Tune 1105	Setting 28756

